X: 0
T: Thirty Year Jig
M:6/8
L:1/8
C:Roger Tallroth
R:jig
D:John McCusker: Yella Hoose
Z:Devin McCabe
K:G fgp=0
Q: "BPM=200"
D|:EDE FEF|GBG D2D|EcB AGE|{F}G2A- AFD|
!EDE FEF|GBG D2D|EcB AGE|1F2G- GzD:|2F2G- Gz2|
|:~d3 ed^c|~d3 A(3F^GA|Bd^c BAG|FED EFA|
!~d3 ed^c|~d3 A(3F^GA|Bd^c BAF-|Fd^c BAF|
!GFE ~F3|GBA FEF|GFG Bed|^c2d- dz2:|
